X:21161 
T:PIPER'S WELCOME, The 
B:DMI.0160
Z:Nordberg/Black
R:jig
%Q:1/4=160
M:6/8
L:1/8
K:D
z2|dcB cAA|dAG FED|dBd cAF|AGF EFA|
dcB cAA|dAG FEF|DFA DFA|AGF EFA:|
%
d3 fdf|a2a afe|ded fdf|efg ecA|
d3 fdf|a2a afe|dcB cAF|AGF EFA:|
%
def def|dAG FED|def def|AGF EFA|
def edc|dAG FED|D2D FEF|AGF EFA:|\
"final"HD4z4|]

%%%

